dist/svg/trend-link.svg

<!-- Generated by Trend Micro Style Portal -->
<svg version="1.1" xmlns="http://www.w3.org/2000/svg" width="16" height="16" viewBox="0 0 16 16">
  <title>trend-link</title>
  <path fill="rgb(34,34,34)" d="M5 13.3c-0.6-0.9-1-2.1-1-3.3 0-3.3 2.7-6 6-6 1.8 0 3.3 0.8 4.4 2v0c-0.2-0.1-0.4-0.2-0.6-0.3v0c-1.3-0.4-3.3 0.1-5 1.2 1.4-0.8 2.9-1.2 4-0.9 1.7 0.5 1.6 2.6-0.1 4.6-1 1.2-2.3 2.1-3.7 2.5 0 0-0.6 0.2-1 0.1-0.2 0-0.4-0.1-0.7-0.1v0c-0.6-0.2-0.9-0.9-0.7-1.5s0.4-1.2 0.7-1.7h1l0.2-0.4h-1l0.6-1.4h-0.4c-0.8 0.8-1.6 1.2-2.6 1.5v0l-0.2 0.4h0.7l-0.5 0.9c0 0.1 0 0.1-0.1 0.2-0.2 0.4-0.3 0.8-0.3 1.2 0.1 0.4 0.2 0.7 0.3 1v0 0zM15.1 6.8c0.4 1.1-0.1 2.7-1.5 4.3-2.1 2.4-5.4 3.9-7.3 3.3-0.2-0.1-0.5-0.2-0.6-0.3v0c1 1.2 2.6 1.9 4.3 1.9 3.3 0 6-2.7 6-6 0-1.2-0.3-2.3-0.9-3.2v0 0zM14 0h-12c-0.5 0-1 0.5-1 1v14c0 0.5 0.5 1 1 1h2v-1h-2v-13h12v2h1v-3c0-0.6-0.4-1-1-1z"></path>
</svg>

<svg width="16" height="16" viewBox="0 0 16 16" fill="rgb(34, 34, 34)" xmlns="http://www.w3.org/2000/svg"><title>trend-link</title><path d="M5 13.3C4.4 12.4 4 11.2 4 10C4 6.7 6.7 4 10 4C11.8 4 13.3 4.8 14.4 6C14.2 5.9 14 5.8 13.8 5.7C12.5 5.3 10.5 5.8 8.8 6.9C10.2 6.1 11.7 5.7 12.8 6C14.5 6.5 14.4 8.6 12.7 10.6C11.7 11.8 10.4 12.7 9 13.1C9 13.1 8.4 13.3 8 13.2C7.8 13.2 7.6 13.1 7.3 13.1C6.7 12.9 6.4 12.2 6.6 11.6C6.8 11 7 10.4 7.3 9.9H8.3L8.5 9.5H7.5L8.1 8.1H7.7C6.9 8.9 6.1 9.3 5.1 9.6L4.9 10H5.6L5.1 10.9C5.1 11 5.1 11 5 11.1C4.8 11.5 4.7 11.9 4.7 12.3C4.8 12.7 4.9 13 5 13.3ZM15.1 6.8C15.5 7.9 15 9.5 13.6 11.1C11.5 13.5 8.2 15 6.3 14.4C6.1 14.3 5.8 14.2 5.7 14.1C6.7 15.3 8.3 16 10 16C13.3 16 16 13.3 16 10C16 8.8 15.7 7.7 15.1 6.8ZM14 0H2C1.5 0 1 0.5 1 1V15C1 15.5 1.5 16 2 16H4V15H2V2H14V4H15V1C15 0.4 14.6 0 14 0Z" fill="rgb(34, 34, 34)" fill-opacity="1.00"/></svg>
